; generated by PrusaSlicer 2.8.0+win64 on 2024-12-02 at 17:40:58 UTC


;
;
; 

; external perimeters extrusion width = 0.45mm
; perimeters extrusion width = 0.45mm
; infill extrusion width = 0.45mm
; solid infill extrusion width = 0.45mm
; top infill extrusion width = 0.40mm
; first layer extrusion width = 0.42mm

M73 P0 R73
M73 Q0 S74
M201 X1000 Y1000 Z200 E5000 ; sets maximum accelerations, mm/sec^2
M203 X200 Y200 Z12 E120 ; sets maximum feedrates, mm / sec
M204 S1250 T1250 ; sets acceleration (S) and retract acceleration (R), mm/sec^2
M205 X8.00 Y8.00 Z0.40 E4.50 ; sets the jerk limits, mm/sec
M205 S0 T0 ; sets the minimum extruding and travel feed rate, mm/sec

; printing object Body1.stl id:0 copy 0
; stop printing object Body1.stl id:0 copy 0

;TYPE:Custom
M862.3 P "MK3S" ; printer model check
M862.1 P0.4 ; nozzle diameter check
M115 U3.14.0 ; tell printer latest fw version
G90 ; use absolute coordinates
M83 ; extruder relative mode
M104 S215 ; set extruder temp
M140 S60 ; set bed temp
M190 S60 ; wait for bed temp
M109 S215 ; wait for extruder temp
G28 W ; home all without mesh bed level
G80 X62.6229 Y52.6229 W124.754 H104.754 ; mesh bed levelling

G1 Z0.2 F720
G1 Y-3 F1000 ; go outside print area
G92 E0
G1 X60 E9 F1000 ; intro line
G1 X100 E12.5 F1000 ; intro line

G92 E0
M221 S95

; Don't change E values below. Excessive value can damage the printer.

M907 E538 ; set extruder motor current
G21 ; set units to millimeters
G90 ; use absolute coordinates
M83 ; use relative distances for extrusion

M900 K0.05 ; Filament gcode LA 1.5
M900 K30 ; Filament gcode LA 1.0




M107
;LAYER_CHANGE
;Z:0.2
;HEIGHT:0.2
G1 E-.8 F2100
G1 Z.6 F720
G1 X63.202 Y53.752 F10800
G1 Z.2 F720
G1 E.8 F2100
M204 S800
;TYPE:Skirt/Brim
;WIDTH:0.42
G1 F1200
G1 X64.235 Y52.949 E.04102
G1 X65 Y52.811 E.02437
G1 X185 Y52.811 E3.76252
G1 X186.248 Y53.202 E.04101
M73 Q0 S73
G1 X187.051 Y54.235 E.04102
G1 X187.189 Y55 E.02437
G1 X187.189 Y155 E3.13543
G1 X186.798 Y156.248 E.04101
M73 P0 R72
G1 X185.765 Y157.051 E.04102
G1 X185 Y157.189 E.02437
G1 X65 Y157.189 E3.76252
G1 X63.752 Y156.798 E.04101
G1 X62.949 Y155.765 E.04102
G1 X62.811 Y155 E.02437
G1 X62.811 Y55 E3.13543
G1 X63.184 Y53.809 E.03913
M204 S1000
;WIPE_START
G1 F8640
G1 X63.202 Y53.752 E-.0138
G1 X64.235 Y52.949 E-.30211
G1 X65 Y52.811 E-.17949
G1 X66.319 Y52.811 E-.3046
;WIPE_END
G1 Z.6 F720
; printing object Body1.stl id:0 copy 0
G1 X148.286 Y71.984 F10800
G1 Z.2 F720
G1 E.8 F2100
M204 S800
;TYPE:Perimeter
;WIDTH:0.419999
G1 F1200
G1 X148.316 Y71.933 E.00186
G1 X148.976 Y71.2 E.03093
G1 X149.863 Y70.54 E.03467
G1 X150.867 Y70.079 E.03464
G1 X151.945 Y69.838 E.03463
G1 X153.05 Y69.825 E.03465
G1 X154.134 Y70.043 E.03467
G1 X155.148 Y70.481 E.03463
G1 X156.049 Y71.12 E.03463
G1 X156.798 Y71.933 E.03466
G1 X157.361 Y72.884 E.03465
G1 X157.739 Y74.047 E.03834
G1 X157.842 Y75.028 E.03093
G1 X157.739 Y76.129 E.03467
G1 X157.409 Y77.183 E.03463
G1 X156.867 Y78.146 E.03465
G1 X156.137 Y78.976 E.03466
G1 X155.25 Y79.635 E.03465
G1 X154.246 Y80.096 E.03464
G1 X153.168 Y80.338 E.03464
G1 X152.063 Y80.35 E.03465
G1 X150.98 Y80.132 E.03464
G1 X149.965 Y79.694 E.03466
G1 X149.064 Y79.055 E.03463
G1 X148.316 Y78.242 E.03464
G1 X147.752 Y77.291 E.03467
G1 X147.399 Y76.244 E.03464
G1 X147.271 Y75.147 E.03463
G1 X147.375 Y74.047 E.03464
G1 X147.704 Y72.992 E.03465
G1 X148.256 Y72.036 E.03461
M204 S1000
G1 X148.256 Y72.036 F10800
G1 X148.586 Y72.203
M204 S800
;TYPE:External perimeter
G1 F1200
G1 X148.596 Y72.186 E.00062
G1 X149.256 Y71.452 E.03095
G1 X150.084 Y70.845 E.03219
G1 X151.021 Y70.424 E.03221
G1 X152.024 Y70.206 E.03218
G1 X153.05 Y70.202 E.03217
G1 X154.055 Y70.412 E.03219
G1 X154.995 Y70.825 E.03219
G1 X155.828 Y71.425 E.03219
G1 X156.517 Y72.186 E.03219
G1 X157.034 Y73.072 E.03216
G1 X157.364 Y74.086 E.03343
G1 X157.467 Y75.068 E.03096
G1 X157.364 Y76.089 E.03218
G1 X157.05 Y77.067 E.03221
G1 X156.541 Y77.958 E.03217
G1 X155.857 Y78.723 E.03218
G1 X155.029 Y79.33 E.03219
G1 X154.093 Y79.751 E.03218
G1 X153.089 Y79.969 E.03221
G1 X152.063 Y79.973 E.03217
G1 X151.058 Y79.764 E.03219
G1 X150.119 Y79.35 E.03218
G1 X149.286 Y78.75 E.03219
G1 X148.596 Y77.99 E.03219
G1 X148.079 Y77.103 E.03219
G1 X147.758 Y76.128 E.03218
G1 X147.646 Y75.107 E.0322
G1 X147.75 Y74.086 E.03218
G1 X148.063 Y73.108 E.0322
G1 X148.556 Y72.254 E.03092
M204 S1000
;WIPE_START
G1 F8640
G1 X148.586 Y72.203 E-.01366
G1 X148.596 Y72.186 E-.00455
G1 X149.256 Y71.452 E-.22792
G1 X150.084 Y70.845 E-.23706
G1 X151.021 Y70.424 E-.23719
G1 X151.358 Y70.351 E-.07962
;WIPE_END
G1 Z.6 F720
G1 X92.279 Y73.99 F10800
G1 Z.2 F720
G1 E.8 F2100
M204 S800
;TYPE:Perimeter
G1 F1200
G1 X92.591 Y72.992 E.03279
G1 X93.133 Y72.029 E.03465
G1 X93.863 Y71.2 E.03463
G1 X94.75 Y70.54 E.03467
G1 X95.754 Y70.079 E.03464
G1 X96.832 Y69.838 E.03463
G1 X97.937 Y69.825 E.03465
G1 X99.02 Y70.043 E.03464
G1 X100.035 Y70.481 E.03466
G1 X100.936 Y71.12 E.03463
G1 X101.684 Y71.933 E.03464
G1 X102.248 Y72.884 E.03467
G1 X102.601 Y73.931 E.03464
G1 X102.729 Y75.028 E.03463
G1 X102.625 Y76.129 E.03467
G1 X102.296 Y77.183 E.03462
G1 X101.754 Y78.146 E.03465
G1 X101.024 Y78.976 E.03466
G1 X100.137 Y79.635 E.03465
G1 X99.133 Y80.096 E.03464
G1 X98.055 Y80.338 E.03464
G1 X96.95 Y80.35 E.03465
G1 X95.866 Y80.132 E.03467
G1 X94.852 Y79.694 E.03463
G1 X93.951 Y79.055 E.03463
G1 X93.202 Y78.242 E.03466
G1 X92.639 Y77.291 E.03465
G1 X92.286 Y76.244 E.03464
G1 X92.155 Y75.088 E.03648
G1 X92.261 Y74.047 E.03281
M204 S1000
G1 X92.261 Y74.047 F10800
G1 X92.643 Y74.067
M204 S800
;TYPE:External perimeter
G1 F1200
G1 X92.95 Y73.108 E.03157
G1 X93.459 Y72.217 E.03217
G1 X94.143 Y71.452 E.03218
G1 X94.971 Y70.845 E.03219
G1 X95.907 Y70.424 E.03218
G1 X96.911 Y70.206 E.03221
G1 X97.937 Y70.202 E.03217
G1 X98.942 Y70.412 E.03219
G1 X99.881 Y70.825 E.03216
G1 X100.714 Y71.425 E.03219
G1 X101.404 Y72.186 E.03221
G1 X101.921 Y73.072 E.03216
G1 X102.242 Y74.047 E.03218
G1 X102.354 Y75.068 E.0322
G1 X102.25 Y76.089 E.03218
G1 X101.937 Y77.067 E.0322
G1 X101.427 Y77.958 E.03219
G1 X100.744 Y78.723 E.03215
G1 X99.916 Y79.33 E.03219
G1 X98.979 Y79.751 E.03221
G1 X97.976 Y79.969 E.03218
G1 X96.95 Y79.973 E.03217
G1 X95.945 Y79.764 E.03219
G1 X95.005 Y79.35 E.0322
G1 X94.173 Y78.75 E.03216
G1 X93.483 Y77.99 E.03219
G1 X92.966 Y77.103 E.03219
G1 X92.645 Y76.128 E.03218
G1 X92.532 Y75.088 E.0328
G1 X92.632 Y74.126 E.03033
M204 S1000
;WIPE_START
G1 F8640
G1 X92.643 Y74.067 E-.01386
G1 X92.95 Y73.108 E-.23251
G1 X93.459 Y72.217 E-.23694
G1 X94.143 Y71.452 E-.23695
G1 X94.422 Y71.248 E-.07974
;WIPE_END
G1 Z.6 F720
G1 X174.612 Y140.25 F10800
G1 Z.2 F720
G1 E.8 F2100
M204 S800
;TYPE:Perimeter
G1 F1200
G1 X174.539 Y140.335 E.00351
G1 X174.275 Y140.43 E.0088
G1 X174.221 Y140.433 E.0017
G1 X75.779 Y140.433 E3.08657
G1 X75.516 Y140.368 E.00849
M73 Q1 S73
G1 X75.308 Y140.181 E.00877
G1 X75.219 Y139.953 E.00767
G1 X75.213 Y139.867 E.0027
G1 X75.213 Y99.425 E1.26803
G1 X75.27 Y99.177 E.00798
M73 P1 R72
G1 X75.412 Y98.994 E.00726
G1 X75.633 Y98.878 E.00783
G1 X75.779 Y98.859 E.00462
G1 X174.221 Y98.859 E3.08657
G1 X174.476 Y98.92 E.00822
G1 X174.689 Y99.107 E.00889
G1 X174.78 Y99.338 E.00778
G1 X174.787 Y99.425 E.00274
G1 X174.787 Y139.867 E1.26803
G1 X174.732 Y140.112 E.00787
G1 X174.651 Y140.205 E.00387
M204 S1000
G1 X174.651 Y140.205 F10800
G1 X174.364 Y139.969
M204 S800
;TYPE:External perimeter
G1 F1200
G1 X174.346 Y140.009 E.00138
G1 X174.221 Y140.056 E.00419
G1 X75.779 Y140.056 E3.08657
G1 X75.637 Y139.992 E.00488
G1 X75.59 Y139.867 E.00419
G1 X75.59 Y99.425 E1.26803
G1 X75.656 Y99.281 E.00497
G1 X75.779 Y99.236 E.00411
G1 X174.221 Y99.236 E3.08657
G1 X174.361 Y99.298 E.0048
G1 X174.41 Y99.425 E.00427
G1 X174.41 Y139.867 E1.26803
G1 X174.389 Y139.915 E.00164
M204 S1000
;WIPE_START
G1 F8640
G1 X174.364 Y139.969 E-.01374
G1 X174.346 Y140.009 E-.01013
G1 X174.221 Y140.056 E-.03084
G1 X170.993 Y140.056 E-.74529
;WIPE_END
G1 Z.6 F720
G1 X65.787 Y55.787 F10800
G1 Z.2 F720
G1 E.8 F2100
M204 S800
;TYPE:Perimeter
G1 F1200
G1 X184.213 Y55.787 E3.71316
G1 X184.213 Y69.419 E.42742
M73 P1 R71
M73 Q1 S72
G1 X184.213 Y154.213 E2.65865
G1 X65.787 Y154.213 E3.71316
G1 X65.787 Y55.847 E3.08419
M204 S1000
G1 X65.41 Y55.41 F10800
M73 P2 R71
M73 Q2 S72
M204 S800
;TYPE:External perimeter
G1 F1200
G1 X184.59 Y55.41 E3.7368
G1 X184.59 Y69.419 E.43924
G1 X184.59 Y154.59 E2.67047
G1 X65.41 Y154.59 E3.7368
G1 X65.41 Y55.47 E3.10783
M204 S1000
;WIPE_START
G1 F8640
G1 X65.41 Y55.41 E-.01385
G1 X68.815 Y55.41 E-.78615
;WIPE_END
G1 Z.6 F720
G1 X184.043 Y56.72 F10800
G1 Z.2 F720
G1 E.8 F2100
M204 S800
;TYPE:Solid infill
;WIDTH:0.420477
G1 F1200
G1 X183.45 Y56.126 E.02635
G1 X182.916 Y56.126 E.01676
G1 X183.874 Y57.084 E.04253
G1 X183.874 Y57.618 E.01676
G1 X182.382 Y56.126 E.06624
G1 X181.848 Y56.126 E.01676
G1 X183.874 Y58.152 E.08995
G1 X183.874 Y58.686 E.01676
G1 X181.314 Y56.126 E.11366
G1 X180.78 Y56.126 E.01676
G1 X183.874 Y59.22 E.13737
G1 X183.874 Y59.754 E.01676
G1 X180.246 Y56.126 E.16108
G1 X179.712 Y56.126 E.01676
G1 X183.874 Y60.288 E.18478
G1 X183.874 Y60.822 E.01676
G1 X179.178 Y56.126 E.20849
G1 X178.644 Y56.126 E.01676
G1 X183.874 Y61.356 E.2322
G1 X183.874 Y61.89 E.01676
G1 X178.11 Y56.126 E.25591
G1 X177.576 Y56.126 E.01676
G1 X183.874 Y62.424 E.27962
G1 X183.874 Y62.958 E.01676
G1 X177.042 Y56.126 E.30333
G1 X176.508 Y56.126 E.01676
G1 X183.874 Y63.492 E.32703
G1 X183.874 Y64.026 E.01676
G1 X175.974 Y56.126 E.35074
G1 X175.44 Y56.126 E.01676
G1 X183.874 Y64.56 E.37445
G1 X183.874 Y65.094 E.01676
G1 X174.907 Y56.126 E.39814
G1 X174.373 Y56.126 E.01676
G1 X183.874 Y65.627 E.42182
G1 X183.874 Y66.161 E.01676
G1 X173.839 Y56.126 E.44553
G1 X173.305 Y56.126 E.01676
G1 X183.874 Y66.695 E.46924
G1 X183.874 Y67.229 E.01676
G1 X172.771 Y56.126 E.49295
G1 X172.237 Y56.126 E.01676
G1 X183.874 Y67.763 E.51666
G1 X183.874 Y68.297 E.01676
G1 X171.703 Y56.126 E.54037
G1 X171.169 Y56.126 E.01676
G1 X183.874 Y68.831 E.56407
G1 X183.874 Y69.365 E.01676
G1 X170.635 Y56.126 E.58778
G1 X170.101 Y56.126 E.01676
G1 X183.874 Y69.899 E.61149
G1 X183.874 Y70.433 E.01676
G1 X169.567 Y56.126 E.6352
G1 X169.033 Y56.126 E.01676
G1 X183.874 Y70.967 E.65891
G1 X183.874 Y71.501 E.01676
G1 X168.499 Y56.126 E.68262
G1 X167.965 Y56.126 E.01676
G1 X183.874 Y72.035 E.70632
G1 X183.874 Y72.569 E.01676
M73 Q2 S71
G1 X167.431 Y56.126 E.73003
G1 X166.897 Y56.126 E.01676
M73 P3 R71
M73 Q3 S71
G1 X183.874 Y73.103 E.75374
G1 X183.874 Y73.637 E.01676
M73 P3 R70
G1 X166.363 Y56.126 E.77745
G1 X165.829 Y56.126 E.01676
G1 X183.874 Y74.171 E.80116
G1 X183.874 Y74.705 E.01676
G1 X165.295 Y56.126 E.82487
G1 X164.762 Y56.126 E.01673
G1 X183.874 Y75.238 E.84853
G1 X183.874 Y75.772 E.01676
G1 X164.228 Y56.126 E.87224
G1 X163.694 Y56.126 E.01676
G1 X183.874 Y76.306 E.89595
G1 X183.874 Y76.84 E.01676
G1 X163.16 Y56.126 E.91966
G1 X162.626 Y56.126 E.01676
G1 X183.874 Y77.374 E.94336
G1 X183.874 Y77.908 E.01676
G1 X162.092 Y56.126 E.96707
G1 X161.558 Y56.126 E.01676
G1 X183.874 Y78.442 E.99078
G1 X183.874 Y78.976 E.01676
G1 X161.024 Y56.126 E1.01449
G1 X160.49 Y56.126 E.01676
G1 X183.874 Y79.51 E1.0382
G1 X183.874 Y80.044 E.01676
G1 X159.956 Y56.126 E1.06191
G1 X159.422 Y56.126 E.01676
G1 X183.874 Y80.578 E1.08562
G1 X183.874 Y81.112 E.01676
G1 X158.888 Y56.126 E1.10932
G1 X158.354 Y56.126 E.01676
G1 X183.874 Y81.646 E1.13303
G1 X183.874 Y82.18 E.01676
G1 X157.82 Y56.126 E1.15674
G1 X157.286 Y56.126 E.01676
G1 X183.874 Y82.714 E1.18045
G1 X183.874 Y83.248 E.01676
G1 X156.752 Y56.126 E1.20416
G1 X156.218 Y56.126 E.01676
G1 X183.874 Y83.782 E1.22787
G1 X183.874 Y84.316 E.01676
G1 X155.684 Y56.126 E1.25157
G1 X155.15 Y56.126 E.01676
G1 X183.874 Y84.85 E1.27528
G1 X183.874 Y85.383 E.01673
G1 X154.617 Y56.126 E1.29895
G1 X154.083 Y56.126 E.01676
G1 X183.874 Y85.917 E1.32266
G1 X183.874 Y86.451 E.01676
G1 X153.549 Y56.126 E1.34636
G1 X153.015 Y56.126 E.01676
M73 P4 R70
M73 Q4 S71
G1 X183.874 Y86.985 E1.37007
G1 X183.874 Y87.519 E.01676
G1 X152.481 Y56.126 E1.39378
G1 X151.947 Y56.126 E.01676
G1 X183.874 Y88.053 E1.41749
G1 X183.874 Y88.587 E.01676
G1 X151.413 Y56.126 E1.4412
G1 X150.879 Y56.126 E.01676
G1 X183.874 Y89.121 E1.46491
G1 X183.874 Y89.655 E.01676
G1 X150.345 Y56.126 E1.48861
G1 X149.811 Y56.126 E.01676
M73 Q4 S70
G1 X183.874 Y90.189 E1.51232
G1 X183.874 Y90.723 E.01676
G1 X149.277 Y56.126 E1.53603
G1 X148.743 Y56.126 E.01676
M73 P4 R69
G1 X183.874 Y91.257 E1.55974
G1 X183.874 Y91.791 E.01676
G1 X148.209 Y56.126 E1.58345
G1 X147.675 Y56.126 E.01676
G1 X183.874 Y92.325 E1.60716
G1 X183.874 Y92.859 E.01676
G1 X147.141 Y56.126 E1.63086
G1 X146.607 Y56.126 E.01676
G1 X183.874 Y93.393 E1.65457
G1 X183.874 Y93.927 E.01676
G1 X146.073 Y56.126 E1.67828
G1 X145.539 Y56.126 E.01676
G1 X183.874 Y94.461 E1.70199
G1 X183.874 Y94.994 E.01673
G1 X145.006 Y56.126 E1.72565
G1 X144.472 Y56.126 E.01676
G1 X183.874 Y95.528 E1.74936
G1 X183.874 Y96.062 E.01676
M73 P5 R69
G1 X143.938 Y56.126 E1.77307
G1 X143.404 Y56.126 E.01676
M73 Q5 S70
G1 X183.874 Y96.596 E1.79678
G1 X183.874 Y97.13 E.01676
G1 X142.87 Y56.126 E1.82049
G1 X142.336 Y56.126 E.01676
G1 X183.874 Y97.664 E1.8442
G1 X183.874 Y98.198 E.01676
G1 X141.802 Y56.126 E1.8679
G1 X141.268 Y56.126 E.01676
G1 X155.342 Y70.2 E.62485
G1 X156.324 Y70.906 E.03797
G1 X157.095 Y71.759 E.0361
G1 X157.367 Y72.226 E.01697
G1 X183.874 Y98.732 E1.17683
G1 X183.874 Y99.266 E.01676
G1 X157.837 Y73.229 E1.15599
G1 X158.062 Y73.916 E.02269
G1 X158.071 Y73.997 E.00256
G1 X183.874 Y99.8 E1.1456
G1 X183.874 Y100.334 E.01676
G1 X158.136 Y74.596 E1.14271
G1 X158.18 Y75.001 E.01279
G1 X158.18 Y75.174 E.00543
G1 X183.874 Y100.868 E1.14076
G1 X183.874 Y101.402 E.01676
G1 X158.129 Y75.658 E1.143
G1 X158.079 Y76.141 E.01524
G1 X183.874 Y101.936 E1.14524
G1 X183.874 Y102.47 E.01676
G1 X157.966 Y76.563 E1.15024
G1 X157.834 Y76.964 E.01325
M73 Q5 S69
G1 X183.874 Y103.004 E1.15612
G1 X183.874 Y103.538 E.01676
G1 X157.702 Y77.366 E1.16198
G1 X157.509 Y77.707 E.0123
M73 P5 R68
G1 X183.874 Y104.072 E1.17055
G1 X183.874 Y104.606 E.01676
G1 X157.315 Y78.047 E1.17916
G1 X157.115 Y78.381 E.01222
G1 X183.874 Y105.139 E1.18802
G1 X183.874 Y105.673 E.01676
G1 X156.868 Y78.668 E1.19899
G1 X156.614 Y78.947 E.01185
G1 X183.874 Y106.207 E1.21028
G1 X183.874 Y106.741 E.01676
M73 P6 R68
G1 X156.359 Y79.227 E1.22158
G1 X156.303 Y79.287 E.00258
M73 Q6 S69
G1 X156.06 Y79.462 E.0094
G1 X183.874 Y107.275 E1.23486
G1 X183.874 Y107.809 E.01676
G1 X155.75 Y79.686 E1.24862
G1 X155.439 Y79.909 E.01201
G1 X174.05 Y98.52 E.82629
G1 X173.516 Y98.52 E.01676
G1 X155.086 Y80.09 E.81825
G1 X154.715 Y80.253 E.01272
G1 X172.982 Y98.52 E.81101
G1 X172.448 Y98.52 E.01676
G1 X154.344 Y80.416 E.80378
G1 X154.271 Y80.448 E.0025
G1 X153.917 Y80.522 E.01135
G1 X171.914 Y98.52 E.79905
G1 X171.38 Y98.52 E.01676
G1 X153.474 Y80.614 E.79499
G1 X153.119 Y80.688 E.01138
G1 X153.014 Y80.688 E.0033
G1 X170.846 Y98.52 E.7917
G1 X170.312 Y98.52 E.01676
G1 X152.48 Y80.688 E.7917
G1 X151.934 Y80.675 E.01715
G1 X169.778 Y98.52 E.79226
G1 X169.244 Y98.52 E.01676
G1 X151.26 Y80.535 E.79847
G1 X150.843 Y80.448 E.01337
G1 X150.48 Y80.289 E.01244
G1 X168.88 Y98.689 E.81692
M204 S1000
;WIPE_START
G1 F8640
G1 X166.43 Y96.239 E-.8
;WIPE_END
G1 Z.6 F720
G1 X174.957 Y99.426 F10800
G1 Z.2 F720
G1 E.8 F2100
M204 S800
G1 F1200
G1 X183.874 Y108.343 E.3959
G1 X183.874 Y108.877 E.01676
G1 X175.126 Y100.13 E.38837
G1 X175.126 Y100.664 E.01676
G1 X183.874 Y109.411 E.38837
G1 X183.874 Y109.945 E.01676
G1 X175.126 Y101.198 E.38837
G1 X175.126 Y101.732 E.01676
G1 X183.874 Y110.479 E.38837
G1 X183.874 Y111.013 E.01676
G1 X175.126 Y102.266 E.38837
G1 X175.126 Y102.8 E.01676
G1 X183.874 Y111.547 E.38837
G1 X183.874 Y112.081 E.01676
G1 X175.126 Y103.334 E.38837
G1 X175.126 Y103.868 E.01676
G1 X183.874 Y112.615 E.38837
G1 X183.874 Y113.149 E.01676
G1 X175.126 Y104.402 E.38837
G1 X175.126 Y104.936 E.01676
G1 X183.874 Y113.683 E.38837
G1 X183.874 Y114.217 E.01676
G1 X175.126 Y105.469 E.38839
G1 X175.126 Y106.003 E.01676
G1 X183.874 Y114.751 E.38839
G1 X183.874 Y115.284 E.01673
G1 X175.126 Y106.537 E.38837
