; generated by PrusaSlicer 2.8.0+win64 on 2024-11-30 at 18:19:11 UTC


;
;
; 

; external perimeters extrusion width = 0.45mm
; perimeters extrusion width = 0.45mm
; infill extrusion width = 0.45mm
; solid infill extrusion width = 0.45mm
; top infill extrusion width = 0.40mm
; support material extrusion width = 0.35mm
; first layer extrusion width = 0.42mm

M73 P0 R291
M73 Q0 S295
M201 X1000 Y1000 Z200 E5000 ; sets maximum accelerations, mm/sec^2
M203 X200 Y200 Z12 E120 ; sets maximum feedrates, mm / sec
M204 S1250 T1250 ; sets acceleration (S) and retract acceleration (R), mm/sec^2
M205 X8.00 Y8.00 Z0.40 E4.50 ; sets the jerk limits, mm/sec
M205 S0 T0 ; sets the minimum extruding and travel feed rate, mm/sec

; printing object Body2.stl id:0 copy 0
; stop printing object Body2.stl id:0 copy 0

;TYPE:Custom
M862.3 P "MK3S" ; printer model check
M862.1 P0.4 ; nozzle diameter check
M115 U3.14.0 ; tell printer latest fw version
G90 ; use absolute coordinates
M83 ; extruder relative mode
M104 S215 ; set extruder temp
M140 S60 ; set bed temp
M190 S60 ; wait for bed temp
M109 S215 ; wait for extruder temp
G28 W ; home all without mesh bed level
G80 X60.6229 Y46.6167 W128.754 H112.76 ; mesh bed levelling

G1 Z0.2 F720
G1 Y-3 F1000 ; go outside print area
G92 E0
G1 X60 E9 F1000 ; intro line
G1 X100 E12.5 F1000 ; intro line

G92 E0
M221 S95

; Don't change E values below. Excessive value can damage the printer.

M907 E538 ; set extruder motor current
G21 ; set units to millimeters
G90 ; use absolute coordinates
M83 ; use relative distances for extrusion

M900 K0.05 ; Filament gcode LA 1.5
M900 K30 ; Filament gcode LA 1.0




M107
;LAYER_CHANGE
;Z:0.2
;HEIGHT:0.2
G1 E-.8 F2100
G1 Z.6 F720
G1 X61.202 Y51.752 F10800
G1 Z.2 F720
G1 E.8 F2100
M204 S800
;TYPE:Skirt/Brim
;WIDTH:0.42
G1 F1200
G1 X62.443 Y50.884 E.04748
G1 X77.665 Y46.877 E.49353
G1 X78.222 Y46.805 E.01761
G1 X171.778 Y46.805 E2.93338
G1 X172.335 Y46.877 E.01761
G1 X187.557 Y50.884 E.49353
G1 X188.665 Y51.579 E.04101
G1 X189.189 Y53 E.04749
G1 X189.189 Y157 E3.26085
G1 X188.798 Y158.248 E.04101
G1 X187.765 Y159.051 E.04102
G1 X187 Y159.189 E.02437
G1 X63 Y159.189 E3.88793
G1 X61.752 Y158.798 E.04101
G1 X60.949 Y157.765 E.04102
G1 X60.811 Y157 E.02437
G1 X60.811 Y53 E3.26085
G1 X61.184 Y51.809 E.03913
M204 S1000
;WIPE_START
G1 F8640
G1 X61.202 Y51.752 E-.0138
G1 X62.443 Y50.884 E-.34969
G1 X64.271 Y50.403 E-.43651
;WIPE_END
G1 Z.6 F720
; printing object Body2.stl id:0 copy 0
G1 X171.778 Y52.52 F10800
G1 Z.2 F720
G1 E.8 F2100
M204 S800
;TYPE:Support material
G1 F1200
G1 X154.356 Y52.52 E.54625
G1 X154.356 Y48.994 E.11056
G1 X171.778 Y48.994 E.54625
G1 X171.778 Y52.463 E.10877
M204 S1000
G1 X171.778 Y52.463 F10800
G1 X171.087 Y52.35
M204 S800
G1 F1200
G1 X171.087 Y49.333 E.0946
G1 X170.668 Y49.333 E.01314
G1 X170.668 Y52.181 E.0893
G1 X170.25 Y52.181 E.01311
G1 X170.25 Y49.333 E.0893
G1 X169.831 Y49.333 E.01314
G1 X169.831 Y52.181 E.0893
G1 X169.412 Y52.181 E.01314
G1 X169.412 Y49.333 E.0893
G1 X168.993 Y49.333 E.01314
G1 X168.993 Y52.181 E.0893
G1 X168.574 Y52.181 E.01314
G1 X168.574 Y49.333 E.0893
G1 X168.155 Y49.333 E.01314
G1 X168.155 Y52.181 E.0893
G1 X167.736 Y52.181 E.01314
G1 X167.736 Y49.333 E.0893
G1 X167.317 Y49.333 E.01314
G1 X167.317 Y52.181 E.0893
G1 X166.898 Y52.181 E.01314
G1 X166.898 Y49.333 E.0893
G1 X166.479 Y49.333 E.01314
G1 X166.479 Y52.181 E.0893
G1 X166.06 Y52.181 E.01314
G1 X166.06 Y49.333 E.0893
G1 X165.641 Y49.333 E.01314
G1 X165.641 Y52.181 E.0893
G1 X165.222 Y52.181 E.01314
G1 X165.222 Y49.333 E.0893
G1 X164.803 Y49.333 E.01314
G1 X164.803 Y52.181 E.0893
G1 X164.384 Y52.181 E.01314
G1 X164.384 Y49.333 E.0893
G1 X163.965 Y49.333 E.01314
G1 X163.965 Y52.181 E.0893
G1 X163.546 Y52.181 E.01314
G1 X163.546 Y49.333 E.0893
G1 X163.127 Y49.333 E.01314
G1 X163.127 Y52.181 E.0893
G1 X162.708 Y52.181 E.01314
G1 X162.708 Y49.333 E.0893
G1 X162.289 Y49.333 E.01314
G1 X162.289 Y52.181 E.0893
G1 X161.87 Y52.181 E.01314
G1 X161.87 Y49.333 E.0893
G1 X161.451 Y49.333 E.01314
G1 X161.451 Y52.181 E.0893
G1 X161.032 Y52.181 E.01314
G1 X161.032 Y49.333 E.0893
G1 X160.613 Y49.333 E.01314
G1 X160.613 Y52.181 E.0893
G1 X160.194 Y52.181 E.01314
G1 X160.194 Y49.333 E.0893
G1 X159.775 Y49.333 E.01314
G1 X159.775 Y52.181 E.0893
G1 X159.356 Y52.181 E.01314
G1 X159.356 Y49.333 E.0893
G1 X158.937 Y49.333 E.01314
G1 X158.937 Y52.181 E.0893
G1 X158.518 Y52.181 E.01314
G1 X158.518 Y49.333 E.0893
G1 X158.099 Y49.333 E.01314
G1 X158.099 Y52.181 E.0893
G1 X157.68 Y52.181 E.01314
G1 X157.68 Y49.333 E.0893
G1 X157.261 Y49.333 E.01314
G1 X157.261 Y52.181 E.0893
G1 X156.842 Y52.181 E.01314
G1 X156.842 Y49.333 E.0893
G1 X156.423 Y49.333 E.01314
G1 X156.423 Y52.181 E.0893
G1 X156.004 Y52.181 E.01314
G1 X156.004 Y49.333 E.0893
G1 X155.585 Y49.333 E.01314
G1 X155.585 Y52.181 E.0893
G1 X155.166 Y52.181 E.01314
G1 X155.166 Y49.333 E.0893
G1 X154.747 Y49.333 E.01314
G1 X154.747 Y52.35 E.0946
M204 S1000
;WIPE_START
G1 F8640
G1 X154.747 Y49.333 E-.69663
G1 X155.166 Y49.333 E-.09675
G1 X155.166 Y49.362 E-.00662
;WIPE_END
G1 Z.6 F720
G1 X95.644 Y52.52 F10800
G1 Z.2 F720
G1 E.8 F2100
M204 S800
G1 F1200
G1 X78.222 Y52.52 E.54625
G1 X78.222 Y48.994 E.11056
G1 X95.644 Y48.994 E.54625
G1 X95.644 Y52.463 E.10877
M204 S1000
G1 X95.644 Y52.463 F10800
G1 X95.253 Y52.35
M204 S800
G1 F1200
G1 X95.253 Y49.333 E.0946
G1 X94.834 Y49.333 E.01314
G1 X94.834 Y52.181 E.0893
G1 X94.415 Y52.181 E.01314
G1 X94.415 Y49.333 E.0893
G1 X93.996 Y49.333 E.01314
G1 X93.996 Y52.181 E.0893
G1 X93.577 Y52.181 E.01314
G1 X93.577 Y49.333 E.0893
G1 X93.158 Y49.333 E.01314
G1 X93.158 Y52.181 E.0893
G1 X92.739 Y52.181 E.01314
G1 X92.739 Y49.333 E.0893
G1 X92.32 Y49.333 E.01314
G1 X92.32 Y52.181 E.0893
G1 X91.901 Y52.181 E.01314
G1 X91.901 Y49.333 E.0893
G1 X91.482 Y49.333 E.01314
G1 X91.482 Y52.181 E.0893
G1 X91.063 Y52.181 E.01314
G1 X91.063 Y49.333 E.0893
G1 X90.644 Y49.333 E.01314
G1 X90.644 Y52.181 E.0893
G1 X90.225 Y52.181 E.01314
G1 X90.225 Y49.333 E.0893
G1 X89.806 Y49.333 E.01314
G1 X89.806 Y52.181 E.0893
G1 X89.387 Y52.181 E.01314
G1 X89.387 Y49.333 E.0893
G1 X88.968 Y49.333 E.01314
G1 X88.968 Y52.181 E.0893
G1 X88.549 Y52.181 E.01314
G1 X88.549 Y49.333 E.0893
G1 X88.13 Y49.333 E.01314
G1 X88.13 Y52.181 E.0893
G1 X87.711 Y52.181 E.01314
G1 X87.711 Y49.333 E.0893
G1 X87.292 Y49.333 E.01314
G1 X87.292 Y52.181 E.0893
G1 X86.873 Y52.181 E.01314
G1 X86.873 Y49.333 E.0893
G1 X86.454 Y49.333 E.01314
G1 X86.454 Y52.181 E.0893
G1 X86.035 Y52.181 E.01314
G1 X86.035 Y49.333 E.0893
G1 X85.616 Y49.333 E.01314
G1 X85.616 Y52.181 E.0893
G1 X85.197 Y52.181 E.01314
G1 X85.197 Y49.333 E.0893
G1 X84.778 Y49.333 E.01314
G1 X84.778 Y52.181 E.0893
G1 X84.359 Y52.181 E.01314
G1 X84.359 Y49.333 E.0893
G1 X83.94 Y49.333 E.01314
G1 X83.94 Y52.181 E.0893
G1 X83.521 Y52.181 E.01314
G1 X83.521 Y49.333 E.0893
G1 X83.102 Y49.333 E.01314
G1 X83.102 Y52.181 E.0893
G1 X82.683 Y52.181 E.01314
G1 X82.683 Y49.333 E.0893
G1 X82.264 Y49.333 E.01314
G1 X82.264 Y52.181 E.0893
G1 X81.845 Y52.181 E.01314
G1 X81.845 Y49.333 E.0893
G1 X81.426 Y49.333 E.01314
G1 X81.426 Y52.181 E.0893
G1 X81.007 Y52.181 E.01314
G1 X81.007 Y49.333 E.0893
G1 X80.588 Y49.333 E.01314
G1 X80.588 Y52.181 E.0893
G1 X80.169 Y52.181 E.01314
G1 X80.169 Y49.333 E.0893
G1 X79.75 Y49.333 E.01314
G1 X79.75 Y52.181 E.0893
G1 X79.332 Y52.181 E.01311
G1 X79.332 Y49.333 E.0893
G1 X78.913 Y49.333 E.01314
M73 P0 R290
G1 X78.913 Y52.35 E.0946
M204 S1000
;WIPE_START
G1 F8640
G1 X78.913 Y49.333 E-.69663
G1 X79.332 Y49.333 E-.09675
G1 X79.332 Y49.362 E-.00662
;WIPE_END
G1 Z.6 F720
G1 X63.787 Y53.787 F10800
G1 Z.2 F720
G1 E.8 F2100
M204 S800
;TYPE:Perimeter
;WIDTH:0.419999
G1 F1200
G1 X186.213 Y53.787 E3.83857
G1 X186.213 Y105 E1.60574
M73 Q0 S294
G1 X186.213 Y156.213 E1.60574
G1 X63.787 Y156.213 E3.83857
G1 X63.787 Y53.847 E3.20961
M204 S1000
G1 X63.41 Y53.41 F10800
M204 S800
;TYPE:External perimeter
G1 F1200
G1 X186.59 Y53.41 E3.86222
G1 X186.59 Y105 E1.61757
G1 X186.59 Y156.59 E1.61757
G1 X63.41 Y156.59 E3.86222
G1 X63.41 Y53.47 E3.23325
M204 S1000
;WIPE_START
G1 F8640
G1 X63.41 Y53.41 E-.01385
G1 X66.815 Y53.41 E-.78615
;WIPE_END
G1 Z.6 F720
G1 X186.043 Y54.72 F10800
G1 Z.2 F720
G1 E.8 F2100
M204 S800
;TYPE:Solid infill
;WIDTH:0.420461
G1 F1200
G1 X185.45 Y54.126 E.02635
G1 X184.916 Y54.126 E.01676
G1 X185.874 Y55.084 E.04253
G1 X185.874 Y55.618 E.01676
G1 X184.382 Y54.126 E.06624
G1 X183.848 Y54.126 E.01676
G1 X185.874 Y56.152 E.08995
G1 X185.874 Y56.686 E.01676
G1 X183.314 Y54.126 E.11365
G1 X182.78 Y54.126 E.01676
G1 X185.874 Y57.22 E.13736
G1 X185.874 Y57.754 E.01676
G1 X182.246 Y54.126 E.16107
G1 X181.712 Y54.126 E.01676
G1 X185.874 Y58.288 E.18478
G1 X185.874 Y58.822 E.01676
G1 X181.178 Y54.126 E.20848
G1 X180.644 Y54.126 E.01676
G1 X185.874 Y59.356 E.23219
G1 X185.874 Y59.89 E.01676
G1 X180.11 Y54.126 E.2559
G1 X179.577 Y54.126 E.01673
G1 X185.874 Y60.423 E.27956
G1 X185.874 Y60.957 E.01676
G1 X179.043 Y54.126 E.30327
G1 X178.509 Y54.126 E.01676
G1 X185.874 Y61.491 E.32698
G1 X185.874 Y62.025 E.01676
G1 X177.975 Y54.126 E.35068
G1 X177.441 Y54.126 E.01676
G1 X185.874 Y62.559 E.37439
G1 X185.874 Y63.093 E.01676
G1 X176.907 Y54.126 E.3981
G1 X176.373 Y54.126 E.01676
G1 X185.874 Y63.627 E.42181
G1 X185.874 Y64.161 E.01676
G1 X175.839 Y54.126 E.44551
G1 X175.305 Y54.126 E.01676
G1 X185.874 Y64.695 E.46922
G1 X185.874 Y65.229 E.01676
G1 X174.771 Y54.126 E.49293
G1 X174.237 Y54.126 E.01676
G1 X185.874 Y65.763 E.51664
G1 X185.874 Y66.297 E.01676
G1 X173.703 Y54.126 E.54034
G1 X173.169 Y54.126 E.01676
G1 X185.874 Y66.831 E.56405
G1 X185.874 Y67.364 E.01673
G1 X172.636 Y54.126 E.58771
G1 X172.102 Y54.126 E.01676
M73 P0 R289
G1 X185.874 Y67.898 E.61142
G1 X185.874 Y68.432 E.01676
M73 Q0 S293
G1 X171.568 Y54.126 E.63513
G1 X171.034 Y54.126 E.01676
G1 X185.874 Y68.966 E.65884
G1 X185.874 Y69.5 E.01676
G1 X170.5 Y54.126 E.68254
G1 X169.966 Y54.126 E.01676
G1 X185.874 Y70.034 E.70625
G1 X185.874 Y70.568 E.01676
G1 X169.432 Y54.126 E.72996
G1 X168.898 Y54.126 E.01676
G1 X185.874 Y71.102 E.75367
G1 X185.874 Y71.636 E.01676
G1 X168.364 Y54.126 E.77737
G1 X167.83 Y54.126 E.01676
G1 X185.874 Y72.17 E.80108
G1 X185.874 Y72.704 E.01676
G1 X167.296 Y54.126 E.82479
G1 X166.762 Y54.126 E.01676
G1 X185.874 Y73.238 E.8485
G1 X185.874 Y73.772 E.01676
G1 X166.228 Y54.126 E.8722
G1 X165.694 Y54.126 E.01676
G1 X185.874 Y74.306 E.89591
G1 X185.874 Y74.839 E.01673
G1 X165.161 Y54.126 E.91957
G1 X164.627 Y54.126 E.01676
G1 X185.874 Y75.373 E.94328
G1 X185.874 Y75.907 E.01676
G1 X164.093 Y54.126 E.96699
G1 X163.559 Y54.126 E.01676
G1 X185.874 Y76.441 E.9907
G1 X185.874 Y76.975 E.01676
G1 X163.025 Y54.126 E1.0144
G1 X162.491 Y54.126 E.01676
G1 X185.874 Y77.509 E1.03811
G1 X185.874 Y78.043 E.01676
G1 X161.957 Y54.126 E1.06182
G1 X161.423 Y54.126 E.01676
G1 X185.874 Y78.577 E1.08552
G1 X185.874 Y79.111 E.01676
G1 X160.889 Y54.126 E1.10923
G1 X160.355 Y54.126 E.01676
G1 X185.874 Y79.645 E1.13294
G1 X185.874 Y80.179 E.01676
G1 X159.821 Y54.126 E1.15665
G1 X159.287 Y54.126 E.01676
G1 X185.874 Y80.713 E1.18035
G1 X185.874 Y81.247 E.01676
G1 X158.753 Y54.126 E1.20406
G1 X158.22 Y54.126 E.01673
G1 X185.874 Y81.78 E1.22773
G1 X185.874 Y82.314 E.01676
G1 X157.686 Y54.126 E1.25143
G1 X157.152 Y54.126 E.01676
G1 X185.874 Y82.848 E1.27514
G1 X185.874 Y83.382 E.01676
G1 X156.618 Y54.126 E1.29885
G1 X156.084 Y54.126 E.01676
G1 X185.874 Y83.916 E1.32255
G1 X185.874 Y84.45 E.01676
G1 X155.55 Y54.126 E1.34626
G1 X155.016 Y54.126 E.01676
G1 X185.874 Y84.984 E1.36997
G1 X185.874 Y85.518 E.01676
G1 X154.482 Y54.126 E1.39368
G1 X153.948 Y54.126 E.01676
G1 X185.874 Y86.052 E1.41738
G1 X185.874 Y86.586 E.01676
G1 X153.414 Y54.126 E1.44109
G1 X152.88 Y54.126 E.01676
M73 P0 R288
G1 X185.874 Y87.12 E1.4648
M73 Q0 S292
G1 X185.874 Y87.654 E.01676
G1 X152.346 Y54.126 E1.48851
G1 X151.812 Y54.126 E.01676
M73 P1 R288
G1 X185.874 Y88.188 E1.51221
M73 Q1 S292
G1 X185.874 Y88.721 E.01673
G1 X151.279 Y54.126 E1.53588
G1 X150.745 Y54.126 E.01676
G1 X185.874 Y89.255 E1.55958
G1 X185.874 Y89.789 E.01676
G1 X150.211 Y54.126 E1.58329
G1 X149.677 Y54.126 E.01676
G1 X185.874 Y90.323 E1.607
G1 X185.874 Y90.857 E.01676
G1 X149.143 Y54.126 E1.63071
G1 X148.609 Y54.126 E.01676
G1 X185.874 Y91.391 E1.65441
G1 X185.874 Y91.925 E.01676
G1 X148.075 Y54.126 E1.67812
G1 X147.541 Y54.126 E.01676
G1 X185.874 Y92.459 E1.70183
G1 X185.874 Y92.993 E.01676
G1 X147.007 Y54.126 E1.72554
G1 X146.473 Y54.126 E.01676
G1 X185.874 Y93.527 E1.74924
G1 X185.874 Y94.061 E.01676
G1 X145.939 Y54.126 E1.77295
G1 X145.405 Y54.126 E.01676
G1 X185.874 Y94.595 E1.79666
G1 X185.874 Y95.129 E.01676
G1 X144.871 Y54.126 E1.82037
G1 X144.338 Y54.126 E.01673
G1 X185.874 Y95.662 E1.84403
G1 X185.874 Y96.196 E.01676
G1 X143.804 Y54.126 E1.86774
G1 X143.27 Y54.126 E.01676
G1 X185.874 Y96.73 E1.89144
G1 X185.874 Y97.264 E.01676
G1 X142.736 Y54.126 E1.91515
G1 X142.202 Y54.126 E.01676
G1 X185.874 Y97.798 E1.93886
G1 X185.874 Y98.332 E.01676
G1 X141.668 Y54.126 E1.96257
G1 X141.134 Y54.126 E.01676
M73 P1 R287
M73 Q1 S291
G1 X185.874 Y98.866 E1.98627
G1 X185.874 Y99.4 E.01676
G1 X140.6 Y54.126 E2.00998
G1 X140.066 Y54.126 E.01676
G1 X185.874 Y99.934 E2.03369
G1 X185.874 Y100.468 E.01676
G1 X139.532 Y54.126 E2.0574
G1 X138.998 Y54.126 E.01676
G1 X185.874 Y101.002 E2.0811
G1 X185.874 Y101.536 E.01676
G1 X138.464 Y54.126 E2.10481
G1 X137.93 Y54.126 E.01676
G1 X185.874 Y102.07 E2.12852
G1 X185.874 Y102.603 E.01673
G1 X137.397 Y54.126 E2.15218
G1 X136.863 Y54.126 E.01676
G1 X185.874 Y103.137 E2.17589
G1 X185.874 Y103.671 E.01676
G1 X136.329 Y54.126 E2.1996
G1 X135.795 Y54.126 E.01676
G1 X185.874 Y104.205 E2.2233
G1 X185.874 Y104.739 E.01676
G1 X135.261 Y54.126 E2.24701
G1 X134.727 Y54.126 E.01676
G1 X185.874 Y105.273 E2.27072
G1 X185.874 Y105.807 E.01676
G1 X134.193 Y54.126 E2.29443
G1 X133.659 Y54.126 E.01676
G1 X185.874 Y106.341 E2.31813
G1 X185.874 Y106.875 E.01676
G1 X133.125 Y54.126 E2.34184
G1 X132.591 Y54.126 E.01676
G1 X185.874 Y107.409 E2.36555
G1 X185.874 Y107.943 E.01676
M73 P1 R286
M73 Q1 S290
G1 X132.057 Y54.126 E2.38926
G1 X131.523 Y54.126 E.01676
G1 X185.874 Y108.477 E2.41296
G1 X185.874 Y109.011 E.01676
G1 X130.989 Y54.126 E2.43667
G1 X130.456 Y54.126 E.01673
G1 X185.874 Y109.544 E2.46033
G1 X185.874 Y110.078 E.01676
G1 X129.922 Y54.126 E2.48404
G1 X129.388 Y54.126 E.01676
G1 X185.874 Y110.612 E2.50775
G1 X185.874 Y111.146 E.01676
G1 X128.854 Y54.126 E2.53146
G1 X128.32 Y54.126 E.01676
G1 X185.874 Y111.68 E2.55516
G1 X185.874 Y112.214 E.01676
G1 X127.786 Y54.126 E2.57887
G1 X127.252 Y54.126 E.01676
G1 X185.874 Y112.748 E2.60258
G1 X185.874 Y113.282 E.01676
G1 X126.718 Y54.126 E2.62629
G1 X126.184 Y54.126 E.01676
G1 X185.874 Y113.816 E2.64999
G1 X185.874 Y114.35 E.01676
G1 X125.65 Y54.126 E2.6737
G1 X125.116 Y54.126 E.01676
G1 X185.874 Y114.884 E2.69741
G1 X185.874 Y115.418 E.01676
G1 X124.582 Y54.126 E2.72112
G1 X124.048 Y54.126 E.01676
M73 P2 R285
M73 Q1 S289
G1 X185.874 Y115.952 E2.74482
G1 X185.874 Y116.485 E.01673
M73 Q2 S289
G1 X123.515 Y54.126 E2.76849
G1 X122.981 Y54.126 E.01676
G1 X185.874 Y117.019 E2.79219
G1 X185.874 Y117.553 E.01676
G1 X122.447 Y54.126 E2.8159
G1 X121.913 Y54.126 E.01676
G1 X185.874 Y118.087 E2.83961
G1 X185.874 Y118.621 E.01676
G1 X121.379 Y54.126 E2.86332
G1 X120.845 Y54.126 E.01676
G1 X185.874 Y119.155 E2.88702
G1 X185.874 Y119.689 E.01676
G1 X120.311 Y54.126 E2.91073
G1 X119.777 Y54.126 E.01676
G1 X185.874 Y120.223 E2.93444
G1 X185.874 Y120.757 E.01676
G1 X119.243 Y54.126 E2.95815
G1 X118.709 Y54.126 E.01676
G1 X185.874 Y121.291 E2.98185
G1 X185.874 Y121.825 E.01676
G1 X118.175 Y54.126 E3.00556
G1 X117.641 Y54.126 E.01676
G1 X185.874 Y122.359 E3.02927
G1 X185.874 Y122.893 E.01676
M73 P2 R284
M73 Q2 S288
G1 X117.107 Y54.126 E3.05298
G1 X116.574 Y54.126 E.01673
G1 X185.874 Y123.426 E3.07664
G1 X185.874 Y123.96 E.01676
G1 X116.04 Y54.126 E3.10035
G1 X115.506 Y54.126 E.01676
G1 X185.874 Y124.494 E3.12405
G1 X185.874 Y125.028 E.01676
G1 X114.972 Y54.126 E3.14776
G1 X114.438 Y54.126 E.01676
G1 X185.874 Y125.562 E3.17147
G1 X185.874 Y126.096 E.01676
